src/images/svg/p2p-mobile.svg

<svg xmlns="http://www.w3.org/2000/svg" width="64" height="66"><g stroke="#FF4449" stroke-linecap="round" stroke-linejoin="round" transform="translate(11 1)" fill="none" fill-rule="evenodd"><rect width="40.96" height="64" rx="7.443"/><path d="M29.798 7.04l4.013.064a3.429 3.429 0 013.437 3.437v46.15a3.43 3.43 0 01-3.437 3.469l-26.662.064a3.425 3.425 0 01-2.441-1.014 3.426 3.426 0 01-.996-2.448V10.509a3.429 3.429 0 013.437-3.437l4.013-.064 18.636.032z"/><path d="M14.515 18.502h0l7.642 10.125L9.914 38.733h12.358a7.784 7.784 0 007.552-6.093l1.024-4.48a8 8 0 00-1.491-6.675 7.685 7.685 0 00-6.055-2.97l-8.787-.013z"/><path d="M22.15 28.653l-5.376 10.105h-6.86zM17.056 3.846h6.848"/><rect width="4.224" height="4.224" x="8.544" y="51.706" rx="1.382"/><rect width="4.224" height="4.224" x="18.368" y="51.706" rx="1.382"/><rect width="4.224" height="4.224" x="28.192" y="51.706" rx="1.382"/><path d="M41.114 27.226h1.747v9.548h-1.747m0-23.059h1.747v4.96h-1.747"/></g></svg>

<svg xmlns="http://www.w3.org/2000/svg" width="64" height="66" viewBox="0 0 64 66">
    <g fill="none" fill-rule="evenodd">
        <g>
            <g>
                <g>
                    <g stroke="#FF4449" stroke-linecap="round" stroke-linejoin="round" transform="translate(-834 -3413) translate(120 3314) translate(714 100) translate(11)">
                        <rect width="40.96" height="64" rx="7.443"/>
                        <path d="M29.798 7.04l4.013.064c.912-.002 1.787.36 2.432 1.005.645.645 1.007 1.52 1.005 2.432v46.15c.01.918-.347 1.801-.993 2.453-.646.652-1.526 1.018-2.444 1.016l-26.662.064c-.917.002-1.796-.363-2.441-1.014-.646-.65-1.005-1.532-.996-2.448V10.509c-.002-.912.36-1.787 1.005-2.432.645-.645 1.52-1.007 2.432-1.005l4.013-.064 18.636.032z"/>
                        <path d="M14.515 18.502h0l7.642 10.125L9.914 38.733h12.358c3.63-.021 6.764-2.55 7.552-6.093l1.024-4.48c.527-2.336-.02-4.785-1.491-6.675-1.453-1.87-3.687-2.966-6.055-2.97l-8.787-.013z"/>
                        <path d="M22.15 28.653L16.774 38.758 9.914 38.758zM17.056 3.846L23.904 3.846"/>
                        <rect width="4.224" height="4.224" x="8.544" y="51.706" rx="1.382"/>
                        <rect width="4.224" height="4.224" x="18.368" y="51.706" rx="1.382"/>
                        <rect width="4.224" height="4.224" x="28.192" y="51.706" rx="1.382"/>
                        <path d="M41.114 27.226L42.861 27.226 42.861 36.774 41.114 36.774M41.114 13.715L42.861 13.715 42.861 18.675 41.114 18.675"/>
                    </g>
                </g>
            </g>
        </g>
    </g>
</svg>
